packages/core/src/svgs/tokens/branded/NAP.svg

<svg width="24" height="24" viewBox="0 0 24 24" fill="none" xmlns="http://www.w3.org/2000/svg">
<path fill-rule="evenodd" clip-rule="evenodd" d="M14.218 18.7064C14.1635 18.7245 14.1087 18.7419 14.0537 18.7587C13.3939 18.9595 12.7023 19.0645 11.9999 19.0647C10.1271 19.0656 8.33062 18.3222 7.00572 16.9985C5.68083 15.6747 4.93609 13.8788 4.9353 12.0059C4.93452 10.133 5.67778 8.33652 7.00156 7.01162C7.82843 6.18409 8.83946 5.58287 9.93838 5.24793C10.6009 5.04593 11.2954 4.94072 12.0006 4.94101C12.9281 4.94139 13.8462 5.12444 14.7028 5.47968C15.5595 5.83492 16.3377 6.35542 16.9931 7.01143C17.6487 7.66745 18.1684 8.44615 18.523 9.30305C18.8775 10.1599 19.0598 11.0783 19.0595 12.0057C19.0591 12.933 18.876 13.8513 18.5208 14.7079C18.1656 15.5645 17.6451 16.3428 16.989 16.9982C16.3331 17.6538 15.5543 18.1736 14.6974 18.5281C14.5396 18.5934 14.3797 18.6528 14.218 18.7064ZM10.43 7.88219H7.88299V8.46455H8.15357L8.47122 8.80892V14.9411C8.47122 14.9411 8.47122 15.5292 7.88299 15.5292V16.1175H9.64767V15.5292C9.64767 15.5292 9.05945 15.4998 9.05945 14.9411V9.44662L15.2124 16.1175H15.53V9.05865C15.53 9.05865 15.53 8.47042 16.1183 8.47042V7.88219H14.3536V8.47042C14.3536 8.47042 14.9419 8.47042 14.9419 9.05865V12.8415L10.43 7.88219Z" fill="#03A7E4"/>
<path fill-rule="evenodd" clip-rule="evenodd" d="M19.0711 4.92892C17.1957 3.05357 14.6522 2 12 2C9.34784 2 6.80429 3.05357 4.92892 4.92892C3.05357 6.80429 2 9.34785 2 12C2 14.6522 3.05357 17.1957 4.92892 19.071C6.80429 20.9464 9.34784 22 12 22C14.6522 22 17.1957 20.9464 19.0711 19.071C20.9464 17.1957 22 14.6522 22 12C22 9.34785 20.9464 6.80429 19.0711 4.92892ZM14.9272 4.93647C13.9993 4.55168 13.0046 4.35341 11.9999 4.35303C9.97098 4.35224 8.02491 5.15748 6.58972 6.59158C5.15451 8.02568 4.34778 9.97113 4.347 12C4.34622 14.0289 5.15145 15.9751 6.58555 17.4103C8.01965 18.8455 9.96521 19.6523 11.9941 19.6531C12.9987 19.6534 13.9935 19.4558 14.9218 19.0718C15.8501 18.6878 16.6936 18.1246 17.4043 17.4145C18.1149 16.7044 18.6787 15.8613 19.0636 14.9333C19.4483 14.0053 19.6466 13.0106 19.647 12.0059C19.6474 11.0014 19.4499 10.0065 19.0657 9.07822C18.6817 8.14992 18.1186 7.30638 17.4084 6.59574C16.6984 5.88511 15.8552 5.32128 14.9272 4.93647Z" fill="#03A7E4"/>
</svg>

<svg xmlns="http://www.w3.org/2000/svg" width="24" height="24" fill="none" viewBox="0 0 24 24">
    <path fill="#03A7E4" fill-rule="evenodd" d="m14.218 18.706-.164.053a7.06 7.06 0 0 1-7.048-1.76 7.062 7.062 0 1 1 7.212 1.707M10.43 7.882H7.883v.583h.27l.318.344v6.132s0 .588-.588.588v.588h1.765v-.588s-.589-.03-.589-.588V9.447l6.153 6.67h.318V9.06s0-.589.588-.589v-.588h-1.764v.588s.588 0 .588.589v3.783z" clip-rule="evenodd"/>
    <path fill="#03A7E4" fill-rule="evenodd" d="M19.071 4.929A10 10 0 1 0 4.93 19.07 10 10 0 0 0 19.07 4.93m-4.144.007a7.65 7.65 0 1 0-5.86 14.133 7.65 7.65 0 0 0 5.86-14.133" clip-rule="evenodd"/>
</svg>
